icons/collage-line.svg

<svg width="24" height="24" fill="none" xmlns="http://www.w3.org/2000/svg"><g clip-path="url(#a)"><path d="M20 3a1 1 0 0 1 1 1v16a1 1 0 0 1-1 1H4a1 1 0 0 1-1-1V4a1 1 0 0 1 1-1h16Zm-8.811 10.158L5 14.25V19h7.218l-1.03-5.842h.001ZM19 5h-7.219l2.468 14H19V5ZM9.75 5H5v7.218l5.842-1.03L9.75 5Z" /></g><defs><clipPath id="a"><path fill="#fff" d="M0 0h24v24H0z"/></clipPath></defs></svg>

<svg xmlns="http://www.w3.org/2000/svg" width="24" height="24" fill="none"><g clip-path="url(#a)"><g><path fill="#121212" d="M20 3C20.552 3 21 3.448 21 4V20C21 20.552 20.552 21 20 21H4C3.448 21 3 20.552 3 20V4C3 3.448 3.448 3 4 3H20ZM11.189 13.158L5 14.25V19H12.218L11.188 13.158H11.189ZM19 5H11.781L14.249 19H19V5ZM9.75 5H5V12.218L10.842 11.188L9.75 5Z"/></g></g><defs><clipPath id="a"><rect width="24" height="24" fill="white"/></clipPath></defs></svg>
